packages/core/src/svgs/tokens/branded/AVG.svg

<svg width="24" height="24" viewBox="0 0 24 24" fill="none" xmlns="http://www.w3.org/2000/svg">
<path d="M6.35038 10.7491L5.93791 9.53023C5.25044 9.80526 3.87549 10.5865 3.87549 11.5552C3.87549 12.7739 6.3504 17.2238 9.64401 17.2238C12.9377 17.2238 14.5813 16.0112 16.2312 15.6051C17.8812 15.1988 21.9998 14.3925 21.9998 11.9615C21.9998 10.024 18.0874 9.26162 15.6187 9.13037L16.6437 10.7491H6.35038Z" fill="url(#paint0_linear_364_1735)"/>
<path d="M20.4679 12.1801C20.3865 13.2613 16.818 13.905 12.4995 13.6176C8.18079 13.3425 4.73724 12.2364 4.81224 11.1551C4.89348 10.074 8.46209 9.424 12.7806 9.70516C17.1054 9.99273 20.5429 11.099 20.4679 12.1801Z" fill="url(#paint1_linear_364_1735)"/>
<path d="M7.36814 11.3117C7.30125 11.277 7.24707 11.222 7.21339 11.1546C7.1797 11.0872 7.16824 11.011 7.18065 10.9366C7.42438 9.4617 8.98055 8.31799 10.868 8.31799C12.9179 8.31799 14.5866 9.68044 14.5866 11.3554C14.5866 11.4804 14.574 11.5991 14.5617 11.7178C14.5366 11.8553 14.4365 11.9679 14.2929 12.0054C11.9804 12.6628 9.50422 12.4147 7.36814 11.3117Z" fill="url(#paint2_linear_364_1735)"/>
<path fill-rule="evenodd" clip-rule="evenodd" d="M11.6999 20.4796C11.6999 20.2609 11.6373 19.9858 11.4999 19.7359C11.3624 19.4859 11.1998 19.3359 11.0874 19.2797C11.0573 19.2608 11.0228 19.25 10.9873 19.2484L10.975 19.2547C10.9436 19.2859 10.8749 19.3922 10.8812 19.6297C10.8812 19.8609 10.9436 20.1296 11.0874 20.3796C11.2249 20.6297 11.3811 20.7796 11.4999 20.8359C11.5498 20.8671 11.5874 20.8671 11.5936 20.8671L11.6061 20.8608C11.6373 20.8296 11.7061 20.7234 11.6999 20.4859V20.4796ZM11.8874 21.1609C12.1999 20.8796 12.1874 20.1608 11.8623 19.5484C11.5311 18.9422 11.0124 18.6734 10.6937 18.9547C10.3811 19.236 10.3937 19.9609 10.7186 20.5671C11.0499 21.1796 11.5686 21.4421 11.8874 21.1609ZM6.78757 6.19897C7.03754 6.31148 7.24379 6.31148 7.37503 6.26147C7.48754 6.21773 7.56252 6.13648 7.58128 5.98023C7.60003 5.82399 7.55628 5.5865 7.38753 5.33026C7.21254 5.08027 6.97506 4.88029 6.73131 4.76779C6.48133 4.66154 6.27509 4.65529 6.14384 4.70529C6.03134 4.74904 5.95635 4.83654 5.94384 4.98653C5.91885 5.14902 5.96259 5.38027 6.13134 5.6365C6.30634 5.89273 6.54382 6.08648 6.78757 6.19897ZM5.7876 5.8615C6.21258 6.49897 6.9938 6.84895 7.52503 6.63645C8.06249 6.43022 8.14999 5.74899 7.73127 5.11152C7.30629 4.47405 6.53132 4.12407 5.99384 4.33031C5.45637 4.53654 5.36887 5.22401 5.79386 5.8615H5.7876Z" fill="#3C8655"/>
<path d="M14.9996 8.31797C13.0996 5.94933 7.53737 0.630789 4.01252 3.36193C0.48767 6.08681 4.45 13.2366 6.34993 15.6114C7.55428 17.0336 8.951 18.281 10.4997 19.3176C10.4559 19.5049 10.4559 19.7362 10.4997 19.9738C8.76011 18.7786 7.20958 17.3291 5.89993 15.6739C1.85636 10.6241 0.781394 4.83061 3.50629 2.72446C6.22492 0.624548 11.3685 3.27443 15.412 8.31797L16.037 9.13051H15.6121C15.3871 8.81796 15.1807 8.54921 14.9996 8.31797ZM18.7057 14.9114C19.4243 17.0927 19.4806 19.2238 17.8807 20.4613C16.2744 21.7049 14.1308 21.2986 12.0997 20.2675C12.1309 20.4988 12.1184 20.7175 12.056 20.8925C14.5121 22.1612 16.8245 22.4111 18.2931 21.2674C19.8681 20.055 20.0056 17.5988 19.0619 14.7615L18.7057 14.9114Z" fill="#3C8655"/>
<path d="M5.7936 5.86169C5.91859 6.05542 6.08108 6.22417 6.26232 6.36166C5.54985 8.69906 7.93726 13.0864 8.82476 14.3301C9.83097 15.7613 14.0495 20.2799 16.4056 18.6174C17.2682 18.0112 17.4057 16.855 17.1744 15.5551L17.718 15.3301C18.0868 17.1424 17.8432 18.6049 16.8868 19.2799C15.0307 20.5861 11.1996 18.3674 8.34353 14.3301C6.04983 11.0928 5.06862 7.6616 5.72484 5.75544L5.78734 5.86169H5.7936ZM15.3495 10.0053L15.0619 9.59278C12.3996 5.84293 8.91226 3.66177 6.93729 4.418C7.20604 4.54299 7.46227 4.74923 7.65602 5.00546C10.0684 4.40549 13.6557 8.28658 14.587 9.59278L14.7869 9.89902L15.3495 10.0053Z" fill="#3C8655"/>
<defs>
<linearGradient id="paint0_linear_364_1735" x1="21.9998" y1="11.0038" x2="2.00047" y2="11.0038" gradientUnits="userSpaceOnUse">
<stop stop-color="#99C454"/>
<stop offset="1" stop-color="#4E984D"/>
</linearGradient>
<linearGradient id="paint1_linear_364_1735" x1="2.91129" y1="9.4905" x2="18.2359" y2="9.76815" gradientUnits="userSpaceOnUse">
<stop stop-color="#B8CF52"/>
<stop offset="1" stop-color="#D7DD50"/>
</linearGradient>
<linearGradient id="paint2_linear_364_1735" x1="3.04146" y1="13.6725" x2="23.6569" y2="16.7417" gradientUnits="userSpaceOnUse">
<stop stop-color="#A07B58"/>
<stop offset="1" stop-color="#B9966D"/>
</linearGradient>
</defs>
</svg>

<svg xmlns="http://www.w3.org/2000/svg" width="24" height="24" fill="none" viewBox="0 0 24 24">
    <path fill="url(#AVG__a)" d="m6.35 10.75-.412-1.22c-.688.275-2.063 1.056-2.063 2.025 0 1.219 2.475 5.669 5.769 5.669s4.937-1.213 6.587-1.619S22 14.392 22 11.961c0-1.937-3.913-2.7-6.381-2.83l1.025 1.618z"/>
    <path fill="url(#AVG__b)" d="M20.468 12.18c-.081 1.081-3.65 1.725-7.969 1.438-4.318-.276-7.762-1.382-7.687-2.463.081-1.081 3.65-1.731 7.969-1.45 4.324.288 7.762 1.394 7.687 2.475"/>
    <path fill="url(#AVG__c)" d="M7.368 11.312a.36.36 0 0 1-.187-.375c.243-1.475 1.8-2.619 3.687-2.619 2.05 0 3.719 1.362 3.719 3.037 0 .125-.013.244-.025.363a.36.36 0 0 1-.27.287 9.46 9.46 0 0 1-6.924-.693"/>
    <path fill="#3C8655" fill-rule="evenodd" d="M11.7 20.48c0-.22-.063-.494-.2-.744-.138-.25-.3-.4-.413-.456a.2.2 0 0 0-.1-.032l-.012.007c-.031.03-.1.137-.094.375 0 .23.063.5.206.75.138.25.294.4.413.456.05.031.087.031.094.031l.012-.006c.031-.031.1-.138.094-.375zm.187.68c.313-.28.3-1-.025-1.612-.33-.606-.85-.875-1.168-.593-.313.281-.3 1.006.025 1.612.33.613.85.875 1.168.594M6.787 6.2c.25.112.457.112.588.062.113-.043.188-.125.206-.28.019-.157-.025-.394-.193-.65a1.7 1.7 0 0 0-.657-.563c-.25-.106-.456-.113-.587-.063-.113.044-.188.132-.2.282-.025.162.019.393.187.65.175.256.413.45.657.562m-1-.337c.426.637 1.207.987 1.738.774.537-.206.625-.887.206-1.524-.425-.638-1.2-.988-1.737-.782-.538.207-.625.894-.2 1.532z" clip-rule="evenodd"/>
    <path fill="#3C8655" d="M15 8.318C13.1 5.949 7.537.631 4.013 3.362c-3.525 2.725.437 9.875 2.337 12.25a20 20 0 0 0 4.15 3.706 1.7 1.7 0 0 0 0 .656 21.1 21.1 0 0 1-4.6-4.3C1.856 10.624.78 4.83 3.506 2.724c2.719-2.1 7.862.55 11.906 5.594l.625.813h-.425A25 25 0 0 0 15 8.318m3.706 6.593c.718 2.182.775 4.313-.825 5.55-1.607 1.244-3.75.838-5.781-.194.03.232.018.45-.044.625 2.456 1.27 4.769 1.52 6.237.375 1.575-1.212 1.713-3.668.769-6.505z"/>
    <path fill="#3C8655" d="M5.794 5.862c.125.193.287.362.468.5-.712 2.337 1.675 6.724 2.563 7.968 1.006 1.431 5.225 5.95 7.58 4.287.863-.606 1-1.762.77-3.062l.543-.225c.369 1.812.125 3.275-.831 3.95-1.856 1.306-5.687-.913-8.543-4.95-2.294-3.237-3.275-6.668-2.62-8.575l.063.107zm9.556 4.143-.288-.412c-2.662-3.75-6.15-5.931-8.125-5.175.269.125.525.331.719.587 2.412-.6 6 3.282 6.931 4.588l.2.306z"/>
    <defs>
        <linearGradient id="AVG__a" x1="22" x2="2" y1="11.004" y2="11.004" gradientUnits="userSpaceOnUse">
            <stop stop-color="#99C454"/>
            <stop offset="1" stop-color="#4E984D"/>
        </linearGradient>
        <linearGradient id="AVG__b" x1="2.911" x2="18.236" y1="9.491" y2="9.768" gradientUnits="userSpaceOnUse">
            <stop stop-color="#B8CF52"/>
            <stop offset="1" stop-color="#D7DD50"/>
        </linearGradient>
        <linearGradient id="AVG__c" x1="3.041" x2="23.657" y1="13.672" y2="16.742" gradientUnits="userSpaceOnUse">
            <stop stop-color="#A07B58"/>
            <stop offset="1" stop-color="#B9966D"/>
        </linearGradient>
    </defs>
</svg>
